X: 1

T: Road to Cullenstown

M: 4/4

L: 1/8

S: Patrick Street

R: reel

D: "Live from Patrick Street"

Z: transcribed by "Barney"

K: G

(3ABc |: d2 de dBGA | B2 BG AGEG | Bdde dBGA | BAAG A3 c |

Bd ~d2 e2 dB | d2 dB AGED | ~B3 G AGEG |1 DGGF GABc :|2 DGGF G3 ||

A | Bd ~d2 ce ~e2 | d2 de dBGA | Bd ~d2 ed ~d2 | gedB A3 c |

BGBd e2 dB | d2 dB AGED | ~B3 G AGEG |1 DGGF G2 c :|2 DGGF G3 ||

                       

ROAD TO DROGHEDA. AKA and see "Drogheda Reel/Lass/Lasses," "The Dangerous Reel," “Hand Me Down the Tackle,” “The Pure Drop [2],” “Reidy Johnson’s [2].” See also an untitled reel in Breathnach (CRÉ III), 1985; No. 189.

           

ROAD TO DRUM, THE. Irish, Hornpipe. D Major. Standard tuning. AA’BB’. Composed by County Cavan/Philadelphia fiddler and composer Ed Reavy (1898-1988). Joseph Reavy, Ed’s son, explains:

***

Ed took this road once when he was young. The boys were on
holiday to attend a session of music in Drum. It was the first time

Ed heard flutes and iddles playing tunes like ‘Trim the Velvet’ and
‘Rakish Paddy’.

***

Reavy (The Collected Compositions of Ed Reavy), No. 115, pg. 128.

           

ROAD TO DUBLIN, THE. AKA and see "Within a Mile of Dublin [1]," "A Mile From Dublin," "Through the Fields [3]," "The Club Reel," "The Kerry Lasses [2]," "Sarah's Reel," "You're a long time a courting," "The Maid of Ballintra," "The Meadow in Bloom," "An Giobarach."

           

ROAD TO DUNDEE, THE. Canadian, Scottish; Waltz. Canada, Prince Edward Island. D Major. Standard tuning. One part. This irregualr (19 measure) tune is a waltz setting of a Scottish air. Source for notated version: Johnny Morrissey (1913-1994, Newtown Cross, Queens County, Prince Edward Island; late of Vernon River) [Perlman]. Perlman (The Fiddle Music of Prince Edward Island), 1996; pg. 171.

           

ROAD TO DURHAM, THE. AKA - “The Ride to Durham.” Irish, Jig. Standard tuning. Composed by Seattle fiddler Armin Barnet and David Molk on the way to the Irish Arts Week in Durham, New York, the original title being “The Ride to Durham.” Green Linnet SIF-1095, Altan - "Horse with a Heart" (1989. Learned from Chicago fiddler Liz Carroll via flute player Cathal McConnell). Shanachie 34013, Liz Carroll - “A Friend Indeed.”

